apps/nuxt3-ssr/assets/minified-icons/Plus.svg

<svg viewBox="0 0 18 17" fill="none" xmlns="http://www.w3.org/2000/svg"><path d="M4.00714 8.5C4.00714 8.08579 4.34293 7.75 4.75714 7.75H8.24976V4.25735C8.24976 3.84314 8.58554 3.50735 8.99976 3.50735C9.41397 3.50735 9.74976 3.84314 9.74976 4.25735V7.75H13.2424C13.6566 7.75 13.9924 8.08579 13.9924 8.5C13.9924 8.91421 13.6566 9.25 13.2424 9.25H9.74975V12.7426C9.74975 13.1569 9.41397 13.4926 8.99975 13.4926C8.58554 13.4926 8.24976 13.1569 8.24976 12.7426V9.25H4.75714C4.34293 9.25 4.00714 8.91421 4.00714 8.5Z" fill="currentColor"/><path fill-rule="evenodd" clip-rule="evenodd" d="M4.31649 0.268758C7.40404 -0.0763211 10.5954 -0.0763211 13.683 0.268758C15.5094 0.472883 16.9843 1.91153 17.1991 3.74849C17.5683 6.90541 17.5683 10.0946 17.1991 13.2515C16.9843 15.0885 15.5094 16.5271 13.683 16.7313C10.5954 17.0763 7.40404 17.0763 4.31649 16.7313C2.49011 16.5271 1.01521 15.0885 0.80036 13.2515C0.43113 10.0946 0.43113 6.90541 0.80036 3.74849C1.01521 1.91153 2.49011 0.472883 4.31649 0.268758ZM13.5164 1.75948C10.5396 1.42677 7.45992 1.42677 4.4831 1.75948C3.33867 1.88738 2.42262 2.79063 2.29021 3.92274C1.93451 6.96389 1.93451 10.0361 2.29021 13.0773C2.42262 14.2094 3.33867 15.1126 4.4831 15.2405C7.45993 15.5732 10.5396 15.5732 13.5164 15.2405C14.6608 15.1126 15.5769 14.2094 15.7093 13.0773C16.065 10.0361 16.065 6.96389 15.7093 3.92274C15.5769 2.79063 14.6608 1.88738 13.5164 1.75948Z" fill="currentColor"/></svg>

<svg fill="none" xmlns="http://www.w3.org/2000/svg" viewBox="0 0 18 17"><path d="M4.007 8.5a.75.75 0 0 1 .75-.75H8.25V4.257a.75.75 0 1 1 1.5 0V7.75h3.492a.75.75 0 0 1 0 1.5H9.75v3.493a.75.75 0 1 1-1.5 0V9.25H4.757a.75.75 0 0 1-.75-.75Z" fill="currentColor"/><path fill-rule="evenodd" clip-rule="evenodd" d="M4.316.269a42.502 42.502 0 0 1 9.367 0c1.826.204 3.301 1.643 3.516 3.48.37 3.156.37 6.346 0 9.502-.215 1.838-1.69 3.276-3.516 3.48a42.512 42.512 0 0 1-9.367 0c-1.826-.204-3.3-1.643-3.516-3.48a40.902 40.902 0 0 1 0-9.503C1.015 1.912 2.49.473 4.316.268Zm9.2 1.49a41.001 41.001 0 0 0-9.033 0A2.486 2.486 0 0 0 2.29 3.923a39.401 39.401 0 0 0 0 9.154 2.486 2.486 0 0 0 2.193 2.164c2.977.332 6.057.332 9.033 0a2.486 2.486 0 0 0 2.193-2.164 39.401 39.401 0 0 0 0-9.154 2.486 2.486 0 0 0-2.193-2.164Z" fill="currentColor"/></svg>
